X: 122
T:Vagabondage
M:3/4
L:1/8
C:Probably one of the Pignols
S:via Ian Roberts
K:C
c2 e2 g2 | f2 e2 d2 | cd Bc AB | G2 AB cG | ef g2 a2 | g2 f2 d2 |
de f2 g2 | ef de c2 | c2 e2 g2 | f2 e2 d2 | cd Bc AB | G2 AB cG |
ef g2 a2 | fg ef de | cd Bc AB | c6 || G2 c2 d2 | e2 d2 c2 |
Bc dA Bd | c2 B2 A2 | G2 b2 c'2 | e2 g2 a2 | d2 ef ed |
ec fe g2 | G2 c2 d2 | e2 d2 c2 | Bc dA Bd | c2 Bc AB |
G2 b2 c'2 | e2 g2 a2 | d2 ef ed | c6 :|

